X:1
T:Çanakkale, 12.9.12.9 D
T:Çanakkale, 12.9.12.9 D
T:William Batchelder Bradbury, 1864
T:Public Domain Courtesy of the Cyber Hymnal™
C:William Batchelder Bradbury, 1864
Z:Public Domain
Z:Courtesy of the Cyber Hymnal™
%%score ( 1 2 ) ( 3 4 )
L:1/8
Q:1/4=85
M:6/8
K:Bb
V:1 treble 
V:2 treble 
V:3 bass 
V:4 bass 
V:1
 [DB]/[Ec]/ | [Fd][Fd][Fd] [Fd][Ec][DB] | [GB][EG][EG] [EG]2 [EG]/[EG]/ | %3
 [DF][DB][DB] [DB][EA][DB] | [Fc]3- [Fc]2 [DB]/[Ec]/ | [Fd][Fd][Fd] [Fd][Ec][DB] | %6
 [GB][EG][EG] [EG]2 [EG]/[EG]/ | [DF][DB][DB] [EA][EG][EA] | [DB]3- [DB]2 [CA]/[DB]/ | %9
 [Fc]FF F2 [DB]/[Ec]/ | [Fd][DB][DB] [DB]2 [Fc]/[Fd]/ | [Fe][Fd][Fc] [Fd][Ec][DB] | %12
 [Fc]3- [Fc]2 [DB]/[Ec]/ | [Fd][Fd][Fd] [Fd][Ec][DB] | [GB][EG][EG] [EG]2 [EG]/[EG]/ | %15
 [DF][DB][DB] [CA][B,G][CA] | [DB]3- [DB]2 |] %17
V:2
 x | x6 | x6 | x6 | x6 | x6 | x6 | x6 | x6 | x FF F2 x | x6 | x6 | x6 | x6 | x6 | x6 | x5 |] %17
V:3
 [B,,B,]/[B,,B,]/ | [B,,B,][B,,B,][B,,B,] [B,,B,][C,A,][D,B,] | %2
 [E,B,][E,B,][E,B,] [E,B,]2 [E,B,]/[E,B,]/ | [B,,B,][B,,F,][B,,F,] [B,,F,][B,,F,][B,,B,] | %4
 [F,A,]3- [F,A,]2 [B,,B,]/[B,,B,]/ | [B,,B,][B,,B,][B,,B,] [B,,B,][C,A,][D,B,] | %6
 [E,B,][E,B,][E,B,] [E,B,]2 [E,B,]/[E,B,]/ | [F,B,]F,F, [F,C][F,C][F,C] | %8
 [B,,B,]3- [B,,B,]2 [F,C]/[F,B,]/ | [F,A,][F,A,][F,A,] [F,A,]2 [B,,B,]/[B,,B,]/ | %10
 [B,,B,][B,,F,][B,,F,] [B,,F,]2 [F,A,]/[F,B,]/ | [F,C][F,B,][F,A,] [F,B,][F,A,][F,B,] | %12
 [F,A,]3- [F,A,]2 B,/B,/ | B,B,B, [B,,B,][C,A,][D,B,] | [E,B,][E,B,][E,B,] [E,B,]2 [E,B,]/[E,B,]/ | %15
 [F,B,]F,F, F,F,F, | [B,,F,]3- [B,,F,]2 |] %17
V:4
 x | x6 | x6 | x6 | x6 | x6 | x6 | x F,F, x3 | x6 | x6 | x6 | x6 | x5 B,/B,/ | B,B,B, x3 | x6 | %15
 x F,F, F,F,F, | x5 |] %17

